dist/img/icon-service-card-6.svg

<svg width="80" height="80" viewBox="0 0 80 80" fill="none" xmlns="http://www.w3.org/2000/svg">
<rect width="80" height="80" rx="16" fill="#F4F5F6"/>
<path d="M20.9998 53V22.7C20.9998 22.5895 21.0893 22.5 21.1998 22.5H59.7998C59.9102 22.5 59.9998 22.5895 59.9998 22.7V53" stroke="#393939" stroke-width="2" stroke-linecap="round"/>
<path d="M40.5001 58.5C40.5001 58.5 25.5002 58.5 21.0001 58.5C16.9869 58.5 16.9505 54.1257 16.9896 53.1792C16.9939 53.0758 17.0794 53 17.1829 53H31.5002H40.5002" stroke="#393939" stroke-width="2" stroke-linecap="round"/>
<path d="M40.4998 58.5C40.4998 58.5 55.4997 58.5 59.9998 58.5C64.013 58.5 64.0496 54.1257 64.0106 53.1792C64.0063 53.0758 63.9208 53 63.8173 53H49.5H40.5" stroke="#393939" stroke-width="2" stroke-linecap="round"/>
<path d="M31.726 32.5C31.5031 32.4902 31.2934 32.3857 31.1454 32.2119L29.2055 30.5504C28.9059 30.1978 28.9377 29.6567 29.2758 29.3442C29.6148 29.0326 30.1326 29.0648 30.4322 29.4174L31.7587 30.5504L34.6138 27.7378C34.9388 27.4115 35.4585 27.4223 35.7722 27.7622C36.0849 28.1031 36.0746 28.6442 35.7478 28.9714L32.3253 32.2617C32.1726 32.415 31.9704 32.5 31.7587 32.5C31.7475 32.5 31.7372 32.5 31.726 32.5Z" fill="#83C150"/>
<path d="M31.726 39.5C31.5031 39.4902 31.2934 39.3857 31.1454 39.2119L29.2055 37.5504C28.9059 37.1978 28.9377 36.6567 29.2758 36.3442C29.6148 36.0326 30.1326 36.0648 30.4322 36.4174L31.7587 37.5504L34.6138 34.7378C34.9388 34.4115 35.4585 34.4223 35.7722 34.7622C36.0849 35.1031 36.0746 35.6442 35.7478 35.9714L32.3253 39.2617C32.1726 39.415 31.9704 39.5 31.7587 39.5C31.7475 39.5 31.7372 39.5 31.726 39.5Z" fill="#83C150"/>
<path d="M31.726 46.5C31.5031 46.4902 31.2934 46.3857 31.1454 46.2119L29.2055 44.5504C28.9059 44.1978 28.9377 43.6567 29.2758 43.3442C29.6148 43.0326 30.1326 43.0648 30.4322 43.4174L31.7587 44.5504L34.6138 41.7378C34.9388 41.4115 35.4585 41.4223 35.7722 41.7622C36.0849 42.1031 36.0746 42.6442 35.7478 42.9714L32.3253 46.2617C32.1726 46.415 31.9704 46.5 31.7587 46.5C31.7475 46.5 31.7372 46.5 31.726 46.5Z" fill="#83C150"/>
<path d="M40 30.5H51.5" stroke="#393939" stroke-linecap="round"/>
<path d="M40 37.5H51.5" stroke="#393939" stroke-linecap="round"/>
<path d="M40 44.5H51.5" stroke="#393939" stroke-linecap="round"/>
</svg>

<svg width="80" height="80" fill="none" xmlns="http://www.w3.org/2000/svg"><rect width="80" height="80" rx="16" fill="#F4F5F6"/><path d="M21 53V22.7c0-.11.09-.2.2-.2h38.6c.11 0 .2.09.2.2V53" stroke="#393939" stroke-width="2" stroke-linecap="round"/><path d="M40.5 58.5H21c-4.013 0-4.05-4.374-4.01-5.32a.189.189 0 01.193-.18H40.5m0 5.5H60c4.013 0 4.05-4.374 4.01-5.32a.189.189 0 00-.193-.18H40.5" stroke="#393939" stroke-width="2" stroke-linecap="round"/><path d="M31.726 32.5a.81.81 0 01-.58-.288l-1.94-1.662a.881.881 0 01.07-1.206.797.797 0 011.156.073l1.327 1.133 2.855-2.812a.797.797 0 011.158.024.882.882 0 01-.024 1.21l-3.423 3.29a.798.798 0 01-.566.238h-.033zm0 7a.81.81 0 01-.58-.288l-1.94-1.662a.881.881 0 01.07-1.206.797.797 0 011.156.073l1.327 1.133 2.855-2.812a.797.797 0 011.158.024.882.882 0 01-.024 1.21l-3.423 3.29a.798.798 0 01-.566.238h-.033zm0 7a.81.81 0 01-.58-.288l-1.94-1.662a.881.881 0 01.07-1.206.797.797 0 011.156.073l1.327 1.133 2.855-2.812a.797.797 0 011.158.024.882.882 0 01-.024 1.21l-3.423 3.29a.798.798 0 01-.566.238h-.033z" fill="#83C150"/><path d="M40 30.5h11.5m-11.5 7h11.5m-11.5 7h11.5" stroke="#393939" stroke-linecap="round"/></svg>
